app/assets/images/Contenido/Whatsapp.svg

<svg fill="none" height="75" viewBox="0 0 75 75" width="75" xmlns="http://www.w3.org/2000/svg"><path d="m37.0834 0c20.4811 0 37.0833 16.6022 37.0833 37.0833 0 20.4812-16.6022 37.0834-37.0833 37.0834-6.5535.0105-12.9916-1.7238-18.6529-5.0248l-18.4156145 5.0248 5.0136645-18.423c-3.30378-5.6631-5.0394465-12.104-5.02849853-18.6604 0-20.4811 16.60224853-37.0833 37.08334853-37.0833zm-12.638 19.6542-.7417.0296c-.4801.0293-.9494.1554-1.3795.3709-.4023.2278-.7695.5126-1.0902.8455-.445.419-.6972.7824-.9679 1.1347-1.3716 1.7834-2.1101 3.9728-2.0989 6.2226.0074 1.8171.4821 3.586 1.2237 5.2399 1.5167 3.3449 4.0124 6.8864 7.3054 10.1682.7936.7899 1.5724 1.5835 2.4105 2.3214 4.0917 3.6026 8.9677 6.2005 14.24 7.5873l2.1063.3226c.686.0371 1.3721-.0148 2.0618-.0482 1.08-.0557 2.1346-.3482 3.0891-.8566.4856-.2502.9595-.5224 1.4203-.8158 0 0 .1594-.1039.4635-.3338.5006-.3708.8084-.6341 1.2238-1.068.3077-.3189.5747-.6935.7787-1.1199.2893-.6045.5785-1.7578.6972-2.7182.089-.7343.063-1.1348.0519-1.3832-.0148-.3968-.3449-.8084-.7046-.9827l-2.1582-.9679s-3.2263-1.4055-5.1991-2.3029c-.2065-.0901-.4277-.1417-.6527-.152-.2537-.0261-.5101.0025-.7519.0837-.2417.0812-.4633.2133-.6498.3872-.0186-.0074-.267.204-2.9482 3.4525-.1539.2068-.3658.363-.6089.4489-.243.0859-.5061.0974-.7557.0332-.2416-.0648-.4783-.1466-.7083-.2448-.4599-.1928-.6193-.267-.9345-.4005-2.1284-.9288-4.0989-2.1836-5.8407-3.7194-.4672-.408-.9011-.853-1.3461-1.2831-1.4589-1.3972-2.7303-2.9778-3.7825-4.7022l-.2188-.3523c-.1571-.2367-.2842-.4921-.3782-.7602-.1409-.5451.2262-.9827.2262-.9827s.9011-.9864 1.3202-1.5204c.4079-.5192.7527-1.0235.9752-1.3832.4376-.7046.5748-1.4277.3449-1.9877-1.0383-2.5365-2.1137-5.0619-3.2188-7.5687-.2188-.4969-.8678-.8529-1.4574-.9234-.2002-.0222-.4005-.0445-.6007-.0593-.498-.0247-.9971-.0198-1.4945.0148l.7454-.0296z" fill="#42b532"/></svg>

<svg width="75" height="75" viewBox="0 0 75 75" fill="none" xmlns="http://www.w3.org/2000/svg">
<path d="M37.0834 0C57.5645 0 74.1667 16.6022 74.1667 37.0833C74.1667 57.5645 57.5645 74.1667 37.0834 74.1667C30.5299 74.1772 24.0918 72.4429 18.4305 69.1419L0.0148855 74.1667L5.02855 55.7437C1.72477 50.0806 -0.0108965 43.6397 5.14726e-05 37.0833C5.14726e-05 16.6022 16.6023 0 37.0834 0ZM24.4454 19.6542L23.7037 19.6838C23.2236 19.7131 22.7543 19.8392 22.3242 20.0547C21.9219 20.2825 21.5547 20.5673 21.234 20.9002C20.789 21.3192 20.5368 21.6826 20.2661 22.0349C18.8945 23.8183 18.156 26.0077 18.1672 28.2575C18.1746 30.0746 18.6493 31.8435 19.3909 33.4974C20.9076 36.8423 23.4033 40.3838 26.6963 43.6656C27.4899 44.4555 28.2687 45.2491 29.1068 45.987C33.1985 49.5896 38.0745 52.1875 43.3468 53.5743L45.4531 53.8969C46.1391 53.934 46.8252 53.8821 47.5149 53.8487C48.5949 53.793 49.6495 53.5005 50.604 52.9921C51.0896 52.7419 51.5635 52.4697 52.0243 52.1763C52.0243 52.1763 52.1837 52.0724 52.4878 51.8425C52.9884 51.4717 53.2962 51.2084 53.7116 50.7745C54.0193 50.4556 54.2863 50.081 54.4903 49.6546C54.7796 49.0501 55.0688 47.8968 55.1875 46.9364C55.2765 46.2021 55.2505 45.8016 55.2394 45.5532C55.2246 45.1564 54.8945 44.7448 54.5348 44.5705L52.3766 43.6026C52.3766 43.6026 49.1503 42.1971 47.1775 41.2997C46.971 41.2096 46.7498 41.158 46.5248 41.1477C46.2711 41.1216 46.0147 41.1502 45.7729 41.2314C45.5312 41.3126 45.3096 41.4447 45.1231 41.6186C45.1045 41.6112 44.8561 41.8226 42.1749 45.0711C42.021 45.2779 41.8091 45.4341 41.566 45.52C41.323 45.6059 41.0599 45.6174 40.8103 45.5532C40.5687 45.4884 40.332 45.4066 40.102 45.3084C39.6421 45.1156 39.4827 45.0414 39.1675 44.9079C37.0391 43.9791 35.0686 42.7243 33.3268 41.1885C32.8596 40.7805 32.4257 40.3355 31.9807 39.9054C30.5218 38.5082 29.2504 36.9276 28.1982 35.2032L27.9794 34.8509C27.8223 34.6142 27.6952 34.3588 27.6012 34.0907C27.4603 33.5456 27.8274 33.108 27.8274 33.108C27.8274 33.108 28.7285 32.1216 29.1476 31.5876C29.5555 31.0684 29.9003 30.5641 30.1228 30.2044C30.5604 29.4998 30.6976 28.7767 30.4677 28.2167C29.4294 25.6802 28.354 23.1548 27.2489 20.648C27.0301 20.1511 26.3811 19.7951 25.7915 19.7246C25.5913 19.7024 25.391 19.6801 25.1908 19.6653C24.6928 19.6406 24.1937 19.6455 23.6963 19.6801L24.4417 19.6505L24.4454 19.6542Z" fill="#42B532"/>
</svg>
